Newaita-dark/apps/64/com.github.plugarut.pwned-checker.svg

<svg height="64" viewBox="0 0 64 64" width="64" xmlns="http://www.w3.org/2000/svg" xmlns:xlink="http://www.w3.org/1999/xlink"><linearGradient id="a"><stop offset="0" stop-opacity=".313726"/><stop offset=".222222" stop-opacity=".27451"/><stop offset="1" stop-opacity="0"/></linearGradient><radialGradient id="b" cx="450.908936" cy="189.579361" gradientTransform="matrix(.00000035 -.156265 -.281277 -.0000002 97.646083 127.190661)" gradientUnits="userSpaceOnUse" r="21.166656" xlink:href="#a"/><radialGradient id="c" cx="450.908936" cy="189.579361" gradientTransform="matrix(-.00000035 .156265 .281277 .0000002 -34.140013 -15.054962)" gradientUnits="userSpaceOnUse" r="21.166656" xlink:href="#a"/><radialGradient id="d" cx="450.908936" cy="189.579361" gradientTransform="matrix(-.00000035 -.156265 .281277 -.0000002 -34.140013 127.190661)" gradientUnits="userSpaceOnUse" r="21.166656" xlink:href="#a"/><radialGradient id="e" cx="450.908936" cy="189.579361" gradientTransform="matrix(.00000035 .156265 -.281277 .0000002 97.646079 -15.054963)" gradientUnits="userSpaceOnUse" r="21.166656" xlink:href="#a"/><linearGradient id="f" gradientTransform="matrix(.534402 0 0 .0998973 -104.691992 33.273418)" gradientUnits="userSpaceOnUse" x1="255.322968" x2="255.323044" y1="228.178589" y2="254.666656"><stop offset="0" stop-opacity=".27451"/><stop offset="1" stop-opacity="0"/></linearGradient><linearGradient id="g" gradientUnits="userSpaceOnUse" x1="31.753048" x2="31.753048" y1="56.067868" y2="29.60699475001"><stop offset="0" stop-color="#546e7a"/><stop offset="1" stop-color="#607d8b"/></linearGradient><linearGradient id="h" gradientUnits="userSpaceOnUse" x1="31.753056" x2="31.753056" y1="56.06789790428" y2="5.79222438278"><stop offset="0" stop-color="#bdbdbd"/><stop offset="1" stop-color="#eee"/></linearGradient><linearGradient id="i" gradientUnits="userSpaceOnUse" x1="31.753048" x2="31.753048" y1="56.067868" y2="5.79221000013"><stop offset="0" stop-color="#9ccc65"/><stop offset="1" stop-color="#aed581"/></linearGradient><path d="m44.984375 56.066406h5.292969v-2.644531h-5.292969zm0 0" fill="url(#b)"/><path d="m18.523438 56.066406h-5.292969v2.648438h5.292969zm0 0" fill="url(#c)"/><path d="m18.523438 56.066406h-5.292969v-2.644531h5.292969zm0 0" fill="url(#d)"/><path d="m44.984375 56.066406h5.292969v2.648438h-5.292969zm0 0" fill="url(#e)"/><path d="m18.523438 56.070312h26.460937v2.644532h-26.460937zm0 0" fill="url(#f)"/><path d="m15.875 29.605469h31.753906c1.460938 0 2.648438 1.1875 2.648438 2.648437v21.167969c0 1.460937-1.1875 2.644531-2.648438 2.644531h-31.753906c-1.460938 0-2.644531-1.183594-2.644531-2.644531v-21.167969c0-1.460937 1.183593-2.648437 2.644531-2.648437zm0 0" fill="url(#g)"/><path d="m31.753906 5.792969c-8.0625 0-14.554687 6.488281-14.554687 14.550781v9.261719h3.96875v-9.261719c0-5.863281 4.722656-10.582031 10.585937-10.582031 5.863282 0 10.582032 4.71875 10.582032 10.582031v9.261719h3.96875v-9.261719c0-8.0625-6.488282-14.550781-14.550782-14.550781zm0 0" fill="url(#h)"/><path d="m31.753906 5.792969c-8.0625 0-14.554687 6.488281-14.554687 14.550781v9.261719h3.96875v-9.261719c0-5.863281 4.722656-10.582031 10.585937-10.582031 5.863282 0 10.582032 4.71875 10.582032 10.582031v9.261719h3.96875v-9.261719c0-8.0625-6.488282-14.550781-14.550782-14.550781zm0 0" fill="#cfcfcf"/><path d="m31.753906 5.792969c-8.0625 0-14.554687 6.488281-14.554687 14.550781v.664062c0-8.0625 6.492187-14.554687 14.554687-14.554687s14.550782 6.492187 14.550782 14.554687v-.664062c0-8.0625-6.488282-14.550781-14.550782-14.550781zm0 0" fill="#fff" fill-opacity=".784314"/><path d="m31.753906 9.101562c-5.863281 0-10.585937 4.71875-10.585937 10.582032v.660156c0-5.863281 4.722656-10.582031 10.585937-10.582031 5.863282 0 10.582032 4.71875 10.582032 10.582031v-.660156c0-5.863282-4.71875-10.582032-10.582032-10.582032zm-14.554687 19.84375v.660157h3.96875v-.660157zm25.136719 0v.660157h3.96875v-.660157zm0 0" fill-opacity=".235294"/><path d="m960.026483 175.140764c-243.756263 0-440.036742 196.162381-440.036742 439.918643v280.012645h119.988548v-280.012645c0-177.266545 142.781648-319.930095 320.048194-319.930095s319.930095 142.66355 319.930095 319.930095v280.012645h119.988548v-280.012645c0-243.756262-196.16238-439.918643-439.918643-439.918643zm0 0" fill="none" stroke="#212121" stroke-linecap="round" stroke-linejoin="round" stroke-width="11.338583" transform="scale(.0330761)"/><path d="m15.875 56.066406c-1.464844 0-2.644531-1.179687-2.644531-2.644531v-1.324219c0 1.46875 1.179687 2.648438 2.644531 2.648438h31.753906c1.464844 0 2.648438-1.179688 2.648438-2.648438v1.324219c0 1.464844-1.183594 2.644531-2.648438 2.644531zm0 0" fill-opacity=".235294"/><path d="m15.875 29.605469c-1.464844 0-2.644531 1.183593-2.644531 2.648437v1.320313c0-1.464844 1.179687-2.644531 2.644531-2.644531h31.753906c1.464844 0 2.648438 1.179687 2.648438 2.644531v-1.320313c0-1.464844-1.183594-2.648437-2.648438-2.648437zm0 0" fill="#fff" fill-opacity=".392157"/><path d="m15.875 29.417969c-1.566406 0-2.832031 1.269531-2.832031 2.835937v21.167969c0 1.566406 1.265625 2.832031 2.832031 2.832031h31.753906c1.566406 0 2.835938-1.265625 2.835938-2.832031v-21.167969c0-1.566406-1.269532-2.835937-2.835938-2.835937zm0 .375h31.753906c1.367188 0 2.460938 1.09375 2.460938 2.460937v21.167969c0 1.367187-1.09375 2.457031-2.460938 2.457031h-31.753906c-1.363281 0-2.457031-1.089844-2.457031-2.457031v-21.167969c0-1.367187 1.09375-2.460937 2.457031-2.460937zm0 0" fill="#212121"/><path d="m50.417969 20.332031c-.867188-.039062-1.699219.351563-2.222657 1.042969l-16.785156 21.582031-11.125-10.015625c-.699218-.644531-1.6875-.863281-2.589844-.574218-.90625.292968-1.582031 1.042968-1.777343 1.972656-.191407.929687.128906 1.890625.84375 2.515625l13.230469 11.910156c.542968.488281 1.265624.730469 1.992187.664063.730469-.066407 1.398437-.429688 1.847656-1.007813l18.523438-23.8125c.617187-.773437.75-1.828125.34375-2.734375-.410157-.902344-1.289063-1.5-2.28125-1.542969zm0 0" fill="url(#i)"/><path d="m50.417969 20.332031c-.867188-.039062-1.699219.351563-2.222657 1.042969l-16.785156 21.582031-11.125-10.015625c-.839844-.773437-2.078125-.917968-3.070312-.363281-.996094.558594-1.519532 1.6875-1.300782 2.804687.183594-.9375.855469-1.703124 1.765626-2 .90625-.296874 1.902343-.082031 2.605468.566407l11.125 10.011719 16.785156-21.578126c.523438-.695312 1.355469-1.085937 2.222657-1.042968 1.214843.054687 2.230469.933594 2.464843 2.128906.144532-.753906-.042968-1.53125-.515624-2.132812-.472657-.601563-1.183594-.96875-1.949219-1.003907zm0 0" fill="#fff" fill-opacity=".392157"/><path d="m48.390625 29.71875-14.558594 18.71875c-.449219.578125-1.117187.941406-1.847656 1.007812-.726563.0625-1.449219-.175781-1.992187-.667968l-13.230469-11.90625c-.324219-.285156-.574219-.648438-.726563-1.050782-.386718 1.023438-.097656 2.179688.726563 2.902344l13.230469 11.90625c.542968.492188 1.265624.730469 1.992187.667969.730469-.066406 1.398437-.429687 1.847656-1.007813l15.5625-20.007812c-.285156-.257812-.625-.449219-1.003906-.5625zm0 0" fill-opacity=".235294"/><path d="m403.305236-52.359281c-6.936837-.312471-13.592452 2.812231-17.779552 8.342953l-134.268428 172.639764-88.991502-80.11735c-5.593215-5.155757-13.498711-6.90559-20.716771-4.593311-7.249308 2.343526-12.655042 8.342953-14.217393 15.779743-1.531103 7.43679 1.031152 15.123556 6.749356 20.123079l105.833643 95.272151c4.343336 3.905877 10.124034 5.843192 15.935978 5.311993 5.843192-.531199 11.186432-3.437172 14.779839-8.06173l148.17335-190.48181c4.937029-6.186909 5.999427-14.623603 2.749738-21.872911-3.280937-7.218061-10.311516-11.998854-18.248258-12.342571zm0 0" fill="none" stroke="#212121" stroke-linecap="round" stroke-linejoin="round" stroke-width="3" transform="matrix(.125012 0 0 .125012 0 26.877566)"/></svg>

<?xml version="1.0" encoding="UTF-8"?>
<svg xmlns="http://www.w3.org/2000/svg" xmlns:xlink="http://www.w3.org/1999/xlink" width="64px" height="64px" viewBox="0 0 64 64" version="1.1">
<defs>
<radialGradient id="radial0" gradientUnits="userSpaceOnUse" cx="450.908936" cy="189.579361" fx="450.908936" fy="189.579361" r="21.166656" gradientTransform="matrix(0.000000348341,-0.156265,-0.281277,-0.000000203077,97.646083,127.190661)">
<stop offset="0" style="stop-color:rgb(0%,0%,0%);stop-opacity:0.313726;"/>
<stop offset="0.222222" style="stop-color:rgb(0%,0%,0%);stop-opacity:0.27451;"/>
<stop offset="1" style="stop-color:rgb(0%,0%,0%);stop-opacity:0;"/>
</radialGradient>
<radialGradient id="radial1" gradientUnits="userSpaceOnUse" cx="450.908936" cy="189.579361" fx="450.908936" fy="189.579361" r="21.166656" gradientTransform="matrix(-0.000000348341,0.156265,0.281277,0.000000203077,-34.140013,-15.054962)">
<stop offset="0" style="stop-color:rgb(0%,0%,0%);stop-opacity:0.313726;"/>
<stop offset="0.222222" style="stop-color:rgb(0%,0%,0%);stop-opacity:0.27451;"/>
<stop offset="1" style="stop-color:rgb(0%,0%,0%);stop-opacity:0;"/>
</radialGradient>
<radialGradient id="radial2" gradientUnits="userSpaceOnUse" cx="450.908936" cy="189.579361" fx="450.908936" fy="189.579361" r="21.166656" gradientTransform="matrix(-0.000000348341,-0.156265,0.281277,-0.000000203077,-34.140013,127.190661)">
<stop offset="0" style="stop-color:rgb(0%,0%,0%);stop-opacity:0.313726;"/>
<stop offset="0.222222" style="stop-color:rgb(0%,0%,0%);stop-opacity:0.27451;"/>
<stop offset="1" style="stop-color:rgb(0%,0%,0%);stop-opacity:0;"/>
</radialGradient>
<radialGradient id="radial3" gradientUnits="userSpaceOnUse" cx="450.908936" cy="189.579361" fx="450.908936" fy="189.579361" r="21.166656" gradientTransform="matrix(0.000000348341,0.156265,-0.281277,0.000000203077,97.646079,-15.054963)">
<stop offset="0" style="stop-color:rgb(0%,0%,0%);stop-opacity:0.313726;"/>
<stop offset="0.222222" style="stop-color:rgb(0%,0%,0%);stop-opacity:0.27451;"/>
<stop offset="1" style="stop-color:rgb(0%,0%,0%);stop-opacity:0;"/>
</radialGradient>
<linearGradient id="linear0" gradientUnits="userSpaceOnUse" x1="255.322968" y1="228.178589" x2="255.323044" y2="254.666656" gradientTransform="matrix(0.534402,0,0,0.0998973,-104.691992,33.273418)">
<stop offset="0" style="stop-color:rgb(0%,0%,0%);stop-opacity:0.27451;"/>
<stop offset="1" style="stop-color:rgb(0%,0%,0%);stop-opacity:0;"/>
</linearGradient>
<linearGradient id="linear1" gradientUnits="userSpaceOnUse" x1="254" y1="233.5" x2="254" y2="21.833334" gradientTransform="matrix(0.125012,0,0,0.125012,0,26.877566)">
<stop offset="0" style="stop-color:rgb(32.941177%,43.137255%,47.843137%);stop-opacity:1;"/>
<stop offset="1" style="stop-color:rgb(37.64706%,49.019608%,54.509807%);stop-opacity:1;"/>
</linearGradient>
<linearGradient id="linear2" gradientUnits="userSpaceOnUse" x1="960" y1="1695.118164" x2="960" y2="175.118118" gradientTransform="matrix(0.0330761,0,0,0.0330761,0,0)">
<stop offset="0" style="stop-color:rgb(74.117649%,74.117649%,74.117649%);stop-opacity:1;"/>
<stop offset="1" style="stop-color:rgb(93.333334%,93.333334%,93.333334%);stop-opacity:1;"/>
</linearGradient>
<linearGradient id="linear3" gradientUnits="userSpaceOnUse" x1="254" y1="233.5" x2="254" y2="-168.666656" gradientTransform="matrix(0.125012,0,0,0.125012,0,26.877566)">
<stop offset="0" style="stop-color:rgb(61.176473%,80.000001%,39.607844%);stop-opacity:1;"/>
<stop offset="1" style="stop-color:rgb(68.235296%,83.529413%,50.588238%);stop-opacity:1;"/>
</linearGradient>
</defs>
<g id="surface1">
<path style=" stroke:none;fill-rule:nonzero;fill:url(#radial0);" d="M 44.984375 56.066406 L 50.277344 56.066406 L 50.277344 53.421875 L 44.984375 53.421875 Z M 44.984375 56.066406 "/>
<path style=" stroke:none;fill-rule:nonzero;fill:url(#radial1);" d="M 18.523438 56.066406 L 13.230469 56.066406 L 13.230469 58.714844 L 18.523438 58.714844 Z M 18.523438 56.066406 "/>
<path style=" stroke:none;fill-rule:nonzero;fill:url(#radial2);" d="M 18.523438 56.066406 L 13.230469 56.066406 L 13.230469 53.421875 L 18.523438 53.421875 Z M 18.523438 56.066406 "/>
<path style=" stroke:none;fill-rule:nonzero;fill:url(#radial3);" d="M 44.984375 56.066406 L 50.277344 56.066406 L 50.277344 58.714844 L 44.984375 58.714844 Z M 44.984375 56.066406 "/>
<path style=" stroke:none;fill-rule:nonzero;fill:url(#linear0);" d="M 18.523438 56.070312 L 44.984375 56.070312 L 44.984375 58.714844 L 18.523438 58.714844 Z M 18.523438 56.070312 "/>
<path style=" stroke:none;fill-rule:nonzero;fill:url(#linear1);" d="M 15.875 29.605469 L 47.628906 29.605469 C 49.089844 29.605469 50.277344 30.792969 50.277344 32.253906 L 50.277344 53.421875 C 50.277344 54.882812 49.089844 56.066406 47.628906 56.066406 L 15.875 56.066406 C 14.414062 56.066406 13.230469 54.882812 13.230469 53.421875 L 13.230469 32.253906 C 13.230469 30.792969 14.414062 29.605469 15.875 29.605469 Z M 15.875 29.605469 "/>
<path style=" stroke:none;fill-rule:nonzero;fill:url(#linear2);" d="M 31.753906 5.792969 C 23.691406 5.792969 17.199219 12.28125 17.199219 20.34375 L 17.199219 29.605469 L 21.167969 29.605469 L 21.167969 20.34375 C 21.167969 14.480469 25.890625 9.761719 31.753906 9.761719 C 37.617188 9.761719 42.335938 14.480469 42.335938 20.34375 L 42.335938 29.605469 L 46.304688 29.605469 L 46.304688 20.34375 C 46.304688 12.28125 39.816406 5.792969 31.753906 5.792969 Z M 31.753906 5.792969 "/>
<path style=" stroke:none;fill-rule:nonzero;fill:rgb(81.176472%,81.176472%,81.176472%);fill-opacity:1;" d="M 31.753906 5.792969 C 23.691406 5.792969 17.199219 12.28125 17.199219 20.34375 L 17.199219 29.605469 L 21.167969 29.605469 L 21.167969 20.34375 C 21.167969 14.480469 25.890625 9.761719 31.753906 9.761719 C 37.617188 9.761719 42.335938 14.480469 42.335938 20.34375 L 42.335938 29.605469 L 46.304688 29.605469 L 46.304688 20.34375 C 46.304688 12.28125 39.816406 5.792969 31.753906 5.792969 Z M 31.753906 5.792969 "/>
<path style=" stroke:none;fill-rule:nonzero;fill:rgb(100%,100%,100%);fill-opacity:0.784314;" d="M 31.753906 5.792969 C 23.691406 5.792969 17.199219 12.28125 17.199219 20.34375 L 17.199219 21.007812 C 17.199219 12.945312 23.691406 6.453125 31.753906 6.453125 C 39.816406 6.453125 46.304688 12.945312 46.304688 21.007812 L 46.304688 20.34375 C 46.304688 12.28125 39.816406 5.792969 31.753906 5.792969 Z M 31.753906 5.792969 "/>
<path style=" stroke:none;fill-rule:nonzero;fill:rgb(0%,0%,0%);fill-opacity:0.235294;" d="M 31.753906 9.101562 C 25.890625 9.101562 21.167969 13.820312 21.167969 19.683594 L 21.167969 20.34375 C 21.167969 14.480469 25.890625 9.761719 31.753906 9.761719 C 37.617188 9.761719 42.335938 14.480469 42.335938 20.34375 L 42.335938 19.683594 C 42.335938 13.820312 37.617188 9.101562 31.753906 9.101562 Z M 17.199219 28.945312 L 17.199219 29.605469 L 21.167969 29.605469 L 21.167969 28.945312 Z M 42.335938 28.945312 L 42.335938 29.605469 L 46.304688 29.605469 L 46.304688 28.945312 Z M 42.335938 28.945312 "/>
<path style="fill:none;stroke-width:11.338583;stroke-linecap:round;stroke-linejoin:round;stroke:rgb(12.941177%,12.941177%,12.941177%);stroke-opacity:1;stroke-miterlimit:4;" d="M 960.026483 175.140764 C 716.27022 175.140764 519.989741 371.303145 519.989741 615.059407 L 519.989741 895.072052 L 639.978289 895.072052 L 639.978289 615.059407 C 639.978289 437.792862 782.759937 295.129312 960.026483 295.129312 C 1137.293029 295.129312 1279.956578 437.792862 1279.956578 615.059407 L 1279.956578 895.072052 L 1399.945126 895.072052 L 1399.945126 615.059407 C 1399.945126 371.303145 1203.782746 175.140764 960.026483 175.140764 Z M 960.026483 175.140764 " transform="matrix(0.0330761,0,0,0.0330761,0,0)"/>
<path style=" stroke:none;fill-rule:nonzero;fill:rgb(0%,0%,0%);fill-opacity:0.235294;" d="M 15.875 56.066406 C 14.410156 56.066406 13.230469 54.886719 13.230469 53.421875 L 13.230469 52.097656 C 13.230469 53.566406 14.410156 54.746094 15.875 54.746094 L 47.628906 54.746094 C 49.09375 54.746094 50.277344 53.566406 50.277344 52.097656 L 50.277344 53.421875 C 50.277344 54.886719 49.09375 56.066406 47.628906 56.066406 Z M 15.875 56.066406 "/>
<path style=" stroke:none;fill-rule:nonzero;fill:rgb(100%,100%,100%);fill-opacity:0.392157;" d="M 15.875 29.605469 C 14.410156 29.605469 13.230469 30.789062 13.230469 32.253906 L 13.230469 33.574219 C 13.230469 32.109375 14.410156 30.929688 15.875 30.929688 L 47.628906 30.929688 C 49.09375 30.929688 50.277344 32.109375 50.277344 33.574219 L 50.277344 32.253906 C 50.277344 30.789062 49.09375 29.605469 47.628906 29.605469 Z M 15.875 29.605469 "/>
<path style=" stroke:none;fill-rule:nonzero;fill:rgb(12.941177%,12.941177%,12.941177%);fill-opacity:1;" d="M 15.875 29.417969 C 14.308594 29.417969 13.042969 30.6875 13.042969 32.253906 L 13.042969 53.421875 C 13.042969 54.988281 14.308594 56.253906 15.875 56.253906 L 47.628906 56.253906 C 49.195312 56.253906 50.464844 54.988281 50.464844 53.421875 L 50.464844 32.253906 C 50.464844 30.6875 49.195312 29.417969 47.628906 29.417969 Z M 15.875 29.792969 L 47.628906 29.792969 C 48.996094 29.792969 50.089844 30.886719 50.089844 32.253906 L 50.089844 53.421875 C 50.089844 54.789062 48.996094 55.878906 47.628906 55.878906 L 15.875 55.878906 C 14.511719 55.878906 13.417969 54.789062 13.417969 53.421875 L 13.417969 32.253906 C 13.417969 30.886719 14.511719 29.792969 15.875 29.792969 Z M 15.875 29.792969 "/>
<path style=" stroke:none;fill-rule:nonzero;fill:url(#linear3);" d="M 50.417969 20.332031 C 49.550781 20.292969 48.71875 20.683594 48.195312 21.375 L 31.410156 42.957031 L 20.285156 32.941406 C 19.585938 32.296875 18.597656 32.078125 17.695312 32.367188 C 16.789062 32.660156 16.113281 33.410156 15.917969 34.339844 C 15.726562 35.269531 16.046875 36.230469 16.761719 36.855469 L 29.992188 48.765625 C 30.535156 49.253906 31.257812 49.496094 31.984375 49.429688 C 32.714844 49.363281 33.382812 49 33.832031 48.421875 L 52.355469 24.609375 C 52.972656 23.835938 53.105469 22.78125 52.699219 21.875 C 52.289062 20.972656 51.410156 20.375 50.417969 20.332031 Z M 50.417969 20.332031 "/>
<path style=" stroke:none;fill-rule:nonzero;fill:rgb(100%,100%,100%);fill-opacity:0.392157;" d="M 50.417969 20.332031 C 49.550781 20.292969 48.71875 20.683594 48.195312 21.375 L 31.410156 42.957031 L 20.285156 32.941406 C 19.445312 32.167969 18.207031 32.023438 17.214844 32.578125 C 16.21875 33.136719 15.695312 34.265625 15.914062 35.382812 C 16.097656 34.445312 16.769531 33.679688 17.679688 33.382812 C 18.585938 33.085938 19.582031 33.300781 20.285156 33.949219 L 31.410156 43.960938 L 48.195312 22.382812 C 48.71875 21.6875 49.550781 21.296875 50.417969 21.339844 C 51.632812 21.394531 52.648438 22.273438 52.882812 23.46875 C 53.027344 22.714844 52.839844 21.9375 52.367188 21.335938 C 51.894531 20.734375 51.183594 20.367188 50.417969 20.332031 Z M 50.417969 20.332031 "/>
<path style=" stroke:none;fill-rule:nonzero;fill:rgb(0%,0%,0%);fill-opacity:0.235294;" d="M 48.390625 29.71875 L 33.832031 48.4375 C 33.382812 49.015625 32.714844 49.378906 31.984375 49.445312 C 31.257812 49.507812 30.535156 49.269531 29.992188 48.777344 L 16.761719 36.871094 C 16.4375 36.585938 16.1875 36.222656 16.035156 35.820312 C 15.648438 36.84375 15.9375 38 16.761719 38.722656 L 29.992188 50.628906 C 30.535156 51.121094 31.257812 51.359375 31.984375 51.296875 C 32.714844 51.230469 33.382812 50.867188 33.832031 50.289062 L 49.394531 30.28125 C 49.109375 30.023438 48.769531 29.832031 48.390625 29.71875 Z M 48.390625 29.71875 "/>
<path style="fill:none;stroke-width:3;stroke-linecap:round;stroke-linejoin:round;stroke:rgb(12.941177%,12.941177%,12.941177%);stroke-opacity:1;stroke-miterlimit:4;" d="M 403.305236 -52.359281 C 396.368399 -52.671752 389.712784 -49.54705 385.525684 -44.016328 L 251.257256 128.623436 L 162.265754 48.506086 C 156.672539 43.350329 148.767043 41.600496 141.548983 43.912775 C 134.299675 46.256301 128.893941 52.255728 127.33159 59.692518 C 125.800487 67.129308 128.362742 74.816074 134.080946 79.815597 L 239.914589 175.087748 C 244.257925 178.993625 250.038623 180.93094 255.850567 180.399741 C 261.693759 179.868542 267.036999 176.962569 270.630406 172.338011 L 418.803756 -18.143799 C 423.740785 -24.330708 424.803183 -32.767402 421.553494 -40.01671 C 418.272557 -47.234771 411.241978 -52.015564 403.305236 -52.359281 Z M 403.305236 -52.359281 " transform="matrix(0.125012,0,0,0.125012,0,26.877566)"/>
</g>
</svg>
